X: 10863
T: Drive Aggy To Water
R: reel
M: 4/4
K: Amajor
|:c2ced2df|c2BABAGB|c2ced2df|eagfaAA2:|
|:afecefg2|afecdecA|afecefg2|eagfaAA2:|

